public/img/cat.svg

<svg width="39" height="26" viewBox="0 0 39 26" fill="none" xmlns="http://www.w3.org/2000/svg">
<path d="M28.7785 22.6036C28.9166 23.5978 28.5404 24.5473 27.8589 25.1424C27.7324 25.2542 27.5954 25.3523 27.4492 25.4366C27.3169 25.5119 27.1788 25.5768 27.0326 25.6281C26.7011 25.7455 26.3558 25.7888 26.0163 25.7672C26.0071 25.7672 25.9978 25.7672 25.9887 25.7649C25.305 25.7159 24.6466 25.4058 24.1806 24.9099C23.4244 24.1062 23.4463 23.1075 23.4554 22.8989C23.4554 22.7985 23.4601 22.7006 23.4715 22.6036H15.2538C15.2654 22.7006 15.2699 22.7985 15.2699 22.8989C15.2792 23.1075 15.301 24.1062 14.5449 24.9099C14.0787 25.4058 13.4204 25.7159 12.7367 25.7649C12.7275 25.7672 12.7183 25.7672 12.709 25.7672C12.3696 25.7888 12.0243 25.7455 11.6928 25.6281C11.5466 25.5768 11.4085 25.5119 11.2761 25.4366C11.13 25.3523 10.993 25.2542 10.8664 25.1436C10.8653 25.1436 10.8653 25.1424 10.8653 25.1424C10.185 24.5462 9.80868 23.5978 9.9468 22.6036H6.98657C7.00613 22.5306 7.02685 22.4566 7.04641 22.3836C7.41472 21.0281 7.78302 19.6715 8.15132 18.3159L8.39302 18.3045L11.2209 18.1792C11.3486 18.1735 11.4465 18.0674 11.4407 17.942C11.435 17.8154 11.3302 17.7174 11.2002 17.7243L8.51847 17.8428L8.27793 17.8542C8.41144 17.3595 8.5461 16.8658 8.67961 16.3722L8.91325 16.3916L11.1841 16.5796H11.2036C11.3222 16.5796 11.4235 16.4896 11.4327 16.371C11.443 16.2457 11.3498 16.135 11.2232 16.1247L9.03525 15.9435L8.80161 15.9241C8.93741 15.4237 9.07323 14.9232 9.20904 14.4238L9.42541 14.507L11.58 15.3313C11.6065 15.3416 11.6352 15.3473 11.6629 15.3473C11.7549 15.3473 11.8424 15.2914 11.877 15.2014C11.9229 15.0839 11.8642 14.9517 11.7457 14.9061L9.54627 14.0635L9.32989 13.9815C10.5234 9.58778 11.7181 5.19409 12.9117 0.801514C13.7737 3.42816 14.6345 6.05481 15.4955 8.68032C16.1032 8.37479 17.52 7.74891 19.3546 7.77741H19.3707C21.2053 7.74891 22.6222 8.37479 23.2298 8.68032C24.0908 6.05481 24.9517 3.42816 25.8138 0.801514C27.0072 5.19409 28.202 9.58778 29.3954 13.9815L29.1791 14.0635L26.9796 14.9061C26.8611 14.9517 26.8012 15.0839 26.8473 15.2014C26.8829 15.2914 26.9704 15.3473 27.0625 15.3473C27.0901 15.3473 27.1177 15.3416 27.1453 15.3313L29.2999 14.507L29.5163 14.4238C29.6521 14.9232 29.788 15.4237 29.9237 15.9241L29.6901 15.9435L27.5022 16.1247C27.3756 16.135 27.2812 16.2457 27.2915 16.371C27.3019 16.4896 27.4031 16.5796 27.5205 16.5796H27.5402L29.8122 16.3916L30.0458 16.3722C30.1793 16.8658 30.3139 17.3595 30.4474 17.8542L30.2069 17.8428L27.524 17.7243C27.394 17.7196 27.2893 17.8154 27.2835 17.942C27.2777 18.0674 27.3767 18.1735 27.5034 18.1792L30.3324 18.3045L30.574 18.3159C30.9424 19.6715 31.3107 21.0281 31.679 22.3836C31.6985 22.4566 31.7192 22.5306 31.7387 22.6036H28.7785Z" fill="#F4E041"/>
<path d="M32.0382 22.8316L31.9783 22.6127L31.9161 22.3835L30.8135 18.3261L30.5742 18.3159L30.3325 18.3045L31.4385 22.3755H28.514L28.5496 22.6344C28.6589 23.4175 28.4242 24.1768 27.9534 24.724C27.8636 24.8289 27.7647 24.9258 27.6588 25.0124C27.6266 25.0398 27.5932 25.066 27.5598 25.09C27.4907 25.1424 27.4194 25.1892 27.3446 25.2313C27.2215 25.3032 27.0914 25.3647 26.9544 25.4126C26.7265 25.4935 26.4894 25.5368 26.2512 25.5437C26.1729 25.546 26.0947 25.5437 26.0164 25.5391C25.9404 25.5346 25.8644 25.5254 25.7885 25.5129C25.2499 25.4274 24.7354 25.1652 24.3487 24.7537C23.7065 24.0707 23.6708 23.2363 23.6858 22.8988C23.6858 22.7997 23.6903 22.7118 23.6996 22.6297L23.7295 22.3755H14.9949L15.0249 22.6297C15.0341 22.7118 15.0398 22.7997 15.0398 22.9079C15.0536 23.2363 15.018 24.0707 14.3757 24.7537C13.989 25.1652 13.4745 25.4274 12.937 25.5129C12.8612 25.5254 12.7852 25.5346 12.7092 25.5391C12.6309 25.5437 12.5527 25.546 12.4744 25.5437C12.235 25.5368 11.9979 25.4935 11.77 25.4126C11.6342 25.3647 11.5041 25.3043 11.3821 25.2325H11.381C11.3062 25.1902 11.2337 25.1424 11.1646 25.09C11.1312 25.066 11.0979 25.0398 11.0656 25.0124C10.9597 24.9258 10.8608 24.8289 10.771 24.724C10.3003 24.1768 10.0655 23.4175 10.1748 22.6344L10.2105 22.3755H7.28708L8.39313 18.3045L8.15144 18.3159L7.91089 18.3261L6.80828 22.3835L6.74613 22.6127L6.68628 22.8316H9.69255C9.61659 24.1711 10.3946 25.4115 11.6146 25.8424C12.677 26.2186 13.9223 25.9063 14.713 25.0649C15.4737 24.2554 15.5163 23.2728 15.5003 22.8988C15.5003 22.876 15.4991 22.8532 15.4991 22.8316H23.2254V22.8886C23.2081 23.2728 23.2507 24.2554 24.0115 25.0649C24.58 25.6691 25.3811 25.9997 26.1809 25.9997C26.4952 25.9997 26.8094 25.9484 27.1098 25.8424C28.3298 25.4115 29.1078 24.1711 29.0319 22.8316H32.0382ZM8.67972 16.372L8.44608 16.3527L8.03635 17.8644L8.27804 17.8541L8.51859 17.8428L8.91336 16.3914L8.67972 16.372ZM25.8346 0L25.594 0.730765C24.8758 2.92191 24.1565 5.11308 23.4383 7.30309L23.0919 8.3599C22.216 7.95177 20.9177 7.52197 19.3709 7.54933H19.3582C17.8068 7.52426 16.5084 7.95177 15.6326 8.3599L15.2862 7.30309C14.5679 5.11308 13.8498 2.92191 13.1304 0.730765L12.8899 0L9.11363 13.8982L9.33001 13.9815L9.54638 14.0635L12.9325 1.60176C13.5712 3.55007 14.21 5.49727 14.8476 7.44445L15.3599 9.00402L15.5992 8.88317C16.4233 8.4682 17.7481 7.97571 19.3547 8.00535H19.3743C20.9856 7.97799 22.3011 8.4682 23.1252 8.88317L23.3657 9.00402L23.8768 7.44445C24.5144 5.49727 25.1532 3.55007 25.7931 1.60176L29.1791 14.0635L29.3956 13.9815L29.6108 13.8982L25.8346 0ZM8.99277 14.3406L8.56808 15.9046L8.80172 15.924L9.03536 15.9434L9.42554 14.507L9.20916 14.4238L8.99277 14.3406ZM29.7316 14.3416L29.5165 14.4238L29.3001 14.507L29.6902 15.9434L29.9238 15.924L30.1564 15.9058L29.7316 14.3416ZM30.2784 16.3527L30.0459 16.372L29.8122 16.3914L30.207 17.8428L30.4476 17.8541L30.6881 17.8644L30.2784 16.3527Z" fill="black" fill-opacity="0.87"/>
<path d="M21.1869 14.9493C20.9164 14.9493 20.6978 14.7326 20.6978 14.4647V11.528C20.6978 11.2601 20.9164 11.0435 21.1869 11.0435C21.4573 11.0435 21.676 11.2601 21.676 11.528V14.4647C21.676 14.7315 21.4573 14.9493 21.1869 14.9493Z" fill="black" fill-opacity="0.87"/>
<path d="M17.8254 14.4365C17.5572 14.4649 17.3155 14.2722 17.2868 14.0055L17.0485 11.7893C17.0197 11.5236 17.2143 11.2842 17.4836 11.2557C17.7518 11.2272 17.9935 11.4199 18.0222 11.6867L18.2604 13.9029C18.2893 14.1696 18.0947 14.4079 17.8254 14.4365Z" fill="black" fill-opacity="0.87"/>
<path d="M11.875 15.2013C11.8405 15.2914 11.7531 15.3472 11.661 15.3472C11.6333 15.3472 11.6046 15.3416 11.5781 15.3313L9.42353 14.507L9.20715 14.4238L8.99077 14.3406L5.86019 13.1424C5.7405 13.0968 5.6818 12.9646 5.72783 12.8471C5.77388 12.7297 5.90738 12.6716 6.02593 12.7172L9.11162 13.8982L9.328 13.9814L9.54437 14.0635L11.7438 14.9061C11.8624 14.9517 11.9211 15.0839 11.875 15.2013Z" fill="black" fill-opacity="0.87"/>
<path d="M11.4305 16.3708C11.4213 16.4894 11.3201 16.5795 11.2015 16.5795H11.1819L8.91112 16.3914L8.67748 16.372L8.44384 16.3526L5.07273 16.0733C4.94612 16.063 4.85174 15.9525 4.86326 15.827C4.8736 15.7017 4.98295 15.6081 5.11185 15.6196L8.56584 15.9046L8.79948 15.9239L9.03312 15.9433L11.2211 16.1246C11.3477 16.1348 11.4409 16.2455 11.4305 16.3708Z" fill="black" fill-opacity="0.87"/>
<path d="M11.4389 17.9422C11.4446 18.0677 11.3468 18.1736 11.219 18.1793L8.39117 18.3047L8.14948 18.3162L7.90893 18.3264L5.09486 18.4519H5.0845C4.9625 18.4519 4.86007 18.356 4.85547 18.2341C4.84971 18.1075 4.94754 18.0015 5.07414 17.9958L8.03437 17.8647L8.27607 17.8545L8.51662 17.8431L11.1983 17.7245C11.3284 17.7176 11.4331 17.8157 11.4389 17.9422Z" fill="black" fill-opacity="0.87"/>
<path d="M32.8614 13.1424L29.7297 14.3417L29.5144 14.4238L29.2981 14.507L27.1435 15.3313C27.1159 15.3416 27.0882 15.3472 27.0606 15.3472C26.9686 15.3472 26.881 15.2914 26.8453 15.2013C26.7994 15.0839 26.8591 14.9517 26.9777 14.9061L29.1772 14.0635L29.3936 13.9814L29.6088 13.8982L32.6956 12.7172C32.813 12.6716 32.9477 12.7297 32.9937 12.8471C33.0386 12.9646 32.9799 13.0968 32.8614 13.1424Z" fill="black" fill-opacity="0.87"/>
<path d="M33.8567 15.8273C33.867 15.9527 33.7726 16.0633 33.646 16.0735L30.2749 16.3529L30.0423 16.3723L29.8087 16.3916L27.5367 16.5797H27.5172C27.3998 16.5797 27.2985 16.4897 27.2881 16.3711C27.2777 16.2457 27.3722 16.1351 27.4987 16.1248L29.6867 15.9436L29.9204 15.9242L30.1528 15.906L33.608 15.6198C33.7346 15.6072 33.8463 15.7018 33.8567 15.8273Z" fill="black" fill-opacity="0.87"/>
<path d="M33.8649 18.2338C33.8591 18.3558 33.7578 18.4516 33.6347 18.4516H33.6243L30.8102 18.3262L30.5709 18.3159L30.3292 18.3045L27.5002 18.1792C27.3736 18.1734 27.2745 18.0674 27.2803 17.942C27.2861 17.8154 27.3908 17.7196 27.5209 17.7243L30.2038 17.8428L30.4443 17.8542L30.6848 17.8645L33.6451 17.9955C33.7728 18.0012 33.8706 18.1073 33.8649 18.2338Z" fill="black" fill-opacity="0.87"/>
<path d="M25.9209 23.5796C26.0087 23.8304 26.0849 24.136 26.1093 24.486C26.1381 24.8976 26.0861 25.2555 26.0145 25.5393L25.9209 23.5796Z" fill="white"/>
<path d="M26.0155 25.7672C25.9971 25.7672 25.9786 25.7649 25.9603 25.7604C25.8372 25.7306 25.7612 25.6064 25.7923 25.4845C25.8728 25.1595 25.9028 24.8289 25.8797 24.5017C25.8601 24.2178 25.8003 23.9328 25.7036 23.6546C25.6621 23.5361 25.7255 23.4061 25.8463 23.3651C25.9672 23.324 26.0972 23.3867 26.1386 23.5065C26.2491 23.8222 26.3159 24.1471 26.3389 24.4709C26.3654 24.846 26.3308 25.2233 26.2388 25.595C26.2123 25.6976 26.1179 25.7672 26.0155 25.7672Z" fill="black" fill-opacity="0.87"/>
<path d="M27.4216 23.4893C27.5627 23.7139 27.6852 23.9874 27.7234 24.3009C27.7697 24.6692 27.6864 24.9896 27.5719 25.2449L27.4216 23.4893Z" fill="white"/>
<path d="M27.5715 25.4718C27.5404 25.4718 27.5093 25.465 27.4782 25.4524C27.362 25.4011 27.309 25.2666 27.3608 25.1515C27.4829 24.8779 27.5266 24.6008 27.4932 24.3272C27.4632 24.0878 27.3736 23.8461 27.2251 23.6078C27.1583 23.5007 27.1916 23.3604 27.2999 23.2943C27.4081 23.2282 27.5497 23.2613 27.6164 23.3684C27.8006 23.6625 27.9121 23.967 27.9501 24.2725C27.9939 24.6282 27.9375 24.9862 27.7821 25.3361C27.7441 25.4217 27.6601 25.4718 27.5715 25.4718Z" fill="black" fill-opacity="0.87"/>
<path d="M12.803 23.5796C12.7152 23.8304 12.6389 24.136 12.6146 24.486C12.5857 24.8976 12.6377 25.2555 12.7093 25.5393L12.803 23.5796Z" fill="white"/>
<path d="M12.707 25.7673C12.6036 25.7673 12.5103 25.6976 12.4838 25.594C12.3917 25.2235 12.3572 24.845 12.3836 24.4698C12.4055 24.145 12.4734 23.8211 12.5839 23.5054C12.6254 23.3868 12.7566 23.3229 12.8762 23.364C12.996 23.405 13.0604 23.535 13.019 23.6536C12.9223 23.9317 12.8624 24.2156 12.8429 24.5006C12.8199 24.8278 12.8498 25.1585 12.9304 25.4834C12.9603 25.6054 12.8855 25.7296 12.7624 25.7593C12.7439 25.765 12.7255 25.7673 12.707 25.7673Z" fill="black" fill-opacity="0.87"/>
<path d="M11.302 23.4893C11.161 23.7139 11.0385 23.9874 11.0003 24.3009C10.9541 24.6692 11.0373 24.9896 11.1517 25.2449L11.302 23.4893Z" fill="white"/>
<path d="M11.1508 25.4718C11.0622 25.4718 10.9781 25.4205 10.9402 25.3361C10.7848 24.9872 10.7272 24.6293 10.7721 24.2725C10.8101 23.967 10.9217 23.6637 11.1059 23.3684C11.1727 23.2613 11.3142 23.2282 11.4224 23.2943C11.5306 23.3604 11.564 23.5007 11.4972 23.6078C11.3487 23.845 11.259 24.0878 11.229 24.3272C11.1957 24.6008 11.2394 24.8779 11.3614 25.1515C11.4132 25.2666 11.3603 25.4011 11.244 25.4524C11.2129 25.4661 11.1819 25.4718 11.1508 25.4718Z" fill="black" fill-opacity="0.87"/>
<path d="M8.35528 22.7985H0.244843C0.11018 22.7985 0 22.7111 0 22.6045C0 22.4977 0.11018 22.4104 0.244843 22.4104H8.35528C8.48994 22.4104 8.60012 22.4977 8.60012 22.6045C8.60012 22.7111 8.48994 22.7985 8.35528 22.7985Z" fill="black" fill-opacity="0.87"/>
<path d="M37.8843 22.8395H30.2593C30.1326 22.8395 30.0291 22.737 30.0291 22.6115C30.0291 22.4862 30.1326 22.3835 30.2593 22.3835H37.8843C38.011 22.3835 38.1144 22.4862 38.1144 22.6115C38.1144 22.737 38.012 22.8395 37.8843 22.8395Z" fill="black" fill-opacity="0.87"/>
<path d="M21.7042 18.6444C21.5384 19.0707 21.1552 19.5324 20.6684 19.6021C20.2184 19.6647 19.804 19.4264 19.5059 19.0559C19.4772 19.1345 19.4415 19.2155 19.3954 19.2964C19.3206 19.4288 18.919 20.083 18.2491 20.083H18.2306C17.593 20.0717 17.0395 19.496 16.9428 18.7424C16.9278 18.617 17.0165 18.503 17.143 18.4881C17.2674 18.4722 17.3848 18.5611 17.3998 18.6854C17.4734 19.2668 17.8843 19.6213 18.2387 19.6271H18.2479C18.6704 19.6271 18.9615 19.1312 18.9938 19.0742C19.1526 18.7914 19.1491 18.5018 19.1203 18.3115C19.11 18.2762 19.1008 18.2408 19.0915 18.2055C18.6485 18.2568 18.2664 18.1029 18.1961 17.8223C18.1167 17.5032 18.4724 17.1407 18.9915 17.013C19.5117 16.8853 19.9974 17.0403 20.0768 17.3596C20.1435 17.6229 19.9145 17.9147 19.5416 18.0812C19.5531 18.1233 19.5635 18.1736 19.5727 18.2282C19.7591 18.8416 20.2357 19.2007 20.6039 19.1505C20.8894 19.1094 21.1575 18.7822 21.2737 18.4813C21.3728 18.2259 21.359 17.9854 21.3302 17.8292C21.3083 17.705 21.3911 17.5864 21.5154 17.5636C21.642 17.5419 21.7606 17.624 21.7836 17.7471C21.8228 17.9615 21.8412 18.2898 21.7042 18.6444Z" fill="black" fill-opacity="0.87"/>
</svg>

<svg width="39" height="26" fill="none" xmlns="http://www.w3.org/2000/svg"><path d="M28.779 22.604c.138.994-.239 1.943-.92 2.538a2.513 2.513 0 0 1-1.843.625c-.009 0-.018 0-.027-.002a2.776 2.776 0 0 1-1.808-.855c-.757-.804-.735-1.802-.726-2.011 0-.1.005-.198.017-.295h-8.218c.011.097.016.195.016.295.01.209.031 1.207-.725 2.01a2.776 2.776 0 0 1-1.808.856c-.01.002-.019.002-.028.002a2.553 2.553 0 0 1-1.433-.33 2.59 2.59 0 0 1-.41-.293v-.002a2.853 2.853 0 0 1-.92-2.538h-2.96l.06-.22 1.105-4.068.242-.011 2.828-.126a.228.228 0 1 0-.02-.455l-2.683.119-.24.011.402-1.482.233.02 2.271.188h.02a.228.228 0 0 0 .02-.455l-2.189-.181-.233-.02.407-1.5.216.083 2.155.824a.23.23 0 0 0 .297-.13.228.228 0 0 0-.131-.295l-2.2-.843-.216-.082L12.912.802l2.583 7.88c.608-.306 2.025-.932 3.86-.904h.016c1.834-.028 3.251.598 3.859.903L25.814.802l3.581 13.18-.216.082-2.2.842a.228.228 0 1 0 .166.425l2.155-.824.216-.083.408 1.5-.234.02-2.188.18a.23.23 0 0 0-.21.247.23.23 0 0 0 .228.209h.02l2.272-.188.234-.02.401 1.482-.24-.011-2.683-.119a.228.228 0 1 0-.02.455l2.828.126.242.01 1.105 4.069.06.22h-2.96Z" fill="#F4E041"/><path d="m32.038 22.832-.06-.22-.062-.228-1.102-4.058-.24-.01-.242-.011 1.107 4.07h-2.925l.036.26a2.644 2.644 0 0 1-.597 2.089 2.332 2.332 0 0 1-.608.507 2.3 2.3 0 0 1-1.328.308 2.526 2.526 0 0 1-1.668-.785c-.643-.683-.678-1.518-.663-1.855 0-.1.004-.187.014-.27l.03-.254h-8.735l.03.255c.01.082.015.17.015.278.014.328-.022 1.163-.664 1.846a2.526 2.526 0 0 1-1.667.785c-.078.005-.156.007-.235.005a2.3 2.3 0 0 1-1.092-.311h-.001a1.936 1.936 0 0 1-.315-.22 2.332 2.332 0 0 1-.295-.289 2.644 2.644 0 0 1-.596-2.09l.035-.259H7.287l1.106-4.07-.242.01-.24.011-1.103 4.058-.062.229-.06.219h3.007c-.076 1.34.702 2.58 1.922 3.01 1.062.377 2.307.064 3.098-.777.76-.81.803-1.792.787-2.166v-.067h7.725v.057c-.017.384.026 1.366.787 2.176.568.604 1.37.935 2.169.935.314 0 .628-.052.929-.158 1.22-.43 1.998-1.67 1.922-3.01h3.006ZM8.68 16.372l-.234-.02-.41 1.512.242-.01.24-.011.395-1.452-.233-.019ZM25.835 0l-.241.73-2.156 6.573-.346 1.057c-.876-.408-2.174-.838-3.721-.81h-.013a8.55 8.55 0 0 0-3.725.81l-.347-1.057c-.718-2.19-1.436-4.381-2.156-6.572L12.89 0 9.114 13.898l.216.084.216.082 3.386-12.462c.64 1.948 1.278 3.895 1.916 5.842l.512 1.56.24-.12c.823-.416 2.148-.908 3.755-.879h.02c1.61-.027 2.926.463 3.75.878l.24.121.512-1.56a6874.56 6874.56 0 0 1 1.916-5.842l3.386 12.461.217-.082.215-.083L25.835 0ZM8.993 14.34l-.425 1.565.234.019.233.02.39-1.437-.216-.083-.216-.083Zm20.739.002-.215.082-.217.083.39 1.436.234-.019.232-.018-.424-1.564Zm.546 2.01-.232.02-.234.02.395 1.45.24.012.241.01-.41-1.511Z" fill="#000" fill-opacity=".87"/><path d="M21.187 14.95a.486.486 0 0 1-.49-.485v-2.937c0-.268.22-.485.49-.485s.489.217.489.485v2.937a.487.487 0 0 1-.49.484ZM17.825 14.437a.489.489 0 0 1-.538-.431l-.238-2.217a.486.486 0 0 1 .435-.533.488.488 0 0 1 .538.43l.238 2.217a.486.486 0 0 1-.435.534ZM11.875 15.201a.23.23 0 0 1-.297.13l-2.154-.824-.217-.083-.216-.083-3.13-1.199a.227.227 0 0 1-.133-.295.231.231 0 0 1 .298-.13l3.086 1.181.216.083.216.082 2.2.843a.227.227 0 0 1 .131.295ZM11.43 16.37a.229.229 0 0 1-.229.21h-.02l-2.27-.189-.234-.019-.233-.02-3.371-.279a.227.227 0 1 1 .039-.453l3.454.285.233.019.234.02 2.188.18c.127.01.22.122.21.247ZM11.439 17.942a.228.228 0 0 1-.22.237l-2.828.126-.242.011-.24.01-2.814.126h-.01a.228.228 0 0 1-.01-.456l2.96-.131.241-.01.24-.012 2.682-.119a.227.227 0 0 1 .24.218ZM32.861 13.142l-3.131 1.2-.216.082-.216.083-2.154.824a.232.232 0 0 1-.298-.13.228.228 0 0 1 .132-.295l2.2-.843.216-.082.215-.083 3.087-1.18a.231.231 0 0 1 .298.13.229.229 0 0 1-.133.294ZM33.857 15.827a.23.23 0 0 1-.211.246l-3.371.28-.233.02-.233.019-2.272.188h-.02a.23.23 0 0 1-.229-.209.23.23 0 0 1 .21-.246l2.189-.181.233-.02.233-.018 3.455-.286a.228.228 0 0 1 .249.207ZM33.865 18.234a.23.23 0 0 1-.23.218h-.01l-2.815-.126-.24-.01-.24-.011-2.83-.126a.228.228 0 1 1 .02-.455l2.684.119.24.011.24.01 2.961.131a.228.228 0 0 1 .22.239Z" fill="#000" fill-opacity=".87"/><path d="M25.92 23.58a3.343 3.343 0 0 1 .094 1.96l-.093-1.96Z" fill="#fff"/><path d="M26.015 25.767a.227.227 0 0 1-.223-.283 3.158 3.158 0 0 0-.088-1.83.227.227 0 0 1 .142-.289.23.23 0 0 1 .293.142 3.61 3.61 0 0 1 .1 2.088.232.232 0 0 1-.223.172Z" fill="#000" fill-opacity=".87"/><path d="M27.422 23.49c.14.224.263.497.301.81a1.75 1.75 0 0 1-.151.945l-.15-1.756Z" fill="#fff"/><path d="M27.572 25.472a.227.227 0 0 1-.21-.32c.12-.274.165-.551.131-.825-.03-.24-.12-.48-.268-.72a.226.226 0 0 1 .075-.313.231.231 0 0 1 .316.074c.185.295.296.599.334.905.044.355-.012.713-.168 1.063a.23.23 0 0 1-.21.136Z" fill="#000" fill-opacity=".87"/><path d="M12.803 23.58c-.088.25-.164.556-.188.906-.03.412.023.77.094 1.053l.094-1.96Z" fill="#fff"/><path d="M12.707 25.767a.23.23 0 0 1-.223-.173 3.607 3.607 0 0 1 .1-2.089.231.231 0 0 1 .292-.141c.12.041.184.171.143.29a3.158 3.158 0 0 0-.089 1.83.228.228 0 0 1-.168.275.186.186 0 0 1-.055.008Z" fill="#000" fill-opacity=".87"/><path d="M11.302 23.49a1.983 1.983 0 0 0-.302.81c-.046.37.037.69.152.945l.15-1.756Z" fill="#fff"/><path d="M11.15 25.472a.231.231 0 0 1-.21-.136 1.978 1.978 0 0 1-.168-1.063c.038-.306.15-.61.334-.905a.231.231 0 0 1 .316-.074.226.226 0 0 1 .075.314c-.148.237-.238.48-.268.72-.033.273.01.55.132.823a.227.227 0 0 1-.21.32ZM8.355 22.799H.245c-.135 0-.245-.088-.245-.194 0-.107.11-.195.245-.195h8.11c.135 0 .245.088.245.195 0 .106-.11.194-.245.194ZM37.884 22.84H30.26a.23.23 0 0 1-.23-.229.23.23 0 0 1 .23-.227h7.625a.23.23 0 0 1 .23.227.229.229 0 0 1-.23.229ZM21.704 18.644c-.166.427-.549.888-1.036.958-.45.063-.864-.176-1.162-.546-.029.078-.064.16-.11.24-.075.133-.477.787-1.147.787h-.018c-.638-.011-1.192-.587-1.288-1.34a.228.228 0 0 1 .2-.255.23.23 0 0 1 .257.197c.073.582.484.936.839.942h.009c.422 0 .713-.496.746-.553.159-.283.155-.572.126-.763l-.029-.105c-.443.05-.825-.103-.895-.384-.08-.319.276-.681.795-.809.52-.128 1.006.027 1.086.347.066.263-.163.555-.535.721.011.042.021.093.03.147.187.614.664.973 1.032.922.285-.04.553-.368.67-.669.099-.255.085-.496.056-.652a.23.23 0 0 1 .185-.265.231.231 0 0 1 .269.183c.039.215.057.543-.08.897Z" fill="#000" fill-opacity=".87"/></svg>
